X:15640
T:Smith's
R:Reel
S:
H:
N:Tommy & Siobhan Peoples, PJ King, Andrew Macnamara, Kevin Crawford etc
D:Maiden Voyage: Music from Pepper's Bar, Feakle, Co. Clare
Z:Adrian Scahill
M:4/4
L:1/8
K:G
A2BA GEDE|GA (3Bcd efga|bgg2 aged|BcBA GABG|\
A2eA GEDE|GA (3Bcd efga|bgg2 aged|BAGB A4||\
a2ba gede|g3a gede|gaba gedB|AcBG EAA2|\
a2ba gedB|degb a2ga|bgg2 agba|g3a gedB||


